X: 29766
T: O My Ghraih
R: waltz
M: 3/4
K: Bminor
f2|B>c d2 c2|d4 B2|B>c d2 cB|A4 F2|
B>c d2 c2|d2 c2 (3Bcd|c2 B2 A2|B4 Bc|
d2 e2 f2|e4 (3ede|f2 e2 d2|c4 de|
f4 B2|A2 F2 (3Bcd|c2 B2 A2|B4||

